assets/symbols/mulberry/last_month.svg

<svg height="850.394" viewBox="0 0 850.394 850.394" width="850.394" xmlns="http://www.w3.org/2000/svg"><g fill="#fff"><path d="m466.75 613.39h73.83v73.83h-73.83zm73.83 0h73.84v73.83h-73.84z"/><path d="m614.42 613.39h73.83v73.83h-73.83zm73.83 0h73.84v73.83h-73.84zm0-73.84h73.84v73.84h-73.84zm-73.83 0h73.83v73.84h-73.83z"/><path d="m540.58 539.55h73.84v73.84h-73.84zm-73.83 0h73.83v73.84h-73.83z"/><path d="m466.75 465.72h73.83v73.83h-73.83zm73.83 0h73.84v73.83h-73.84z"/><path d="m614.42 465.72h73.83v73.83h-73.83zm73.83 0h73.84v73.83h-73.84zm0-73.6h73.84v73.6h-73.84zm-73.83 0h73.83v73.6h-73.83z"/><path d="m540.58 392.12h73.84v73.6h-73.84zm-73.83 0h73.83v73.6h-73.83zm-381.22 221.27h73.84v73.83h-73.84zm73.84 0h73.83v73.83h-73.83zm73.83 0h73.83v73.83h-73.83zm73.83 0h73.84v73.83h-73.84zm0-73.84h73.84v73.84h-73.84zm-73.83 0h73.83v73.84h-73.83zm-73.83 0h73.83v73.84h-73.83zm-73.84 0h73.84v73.84h-73.84z"/><path d="m85.53 465.72h73.84v73.83h-73.84zm73.84 0h73.83v73.83h-73.83zm73.83 0h73.83v73.83h-73.83zm73.83 0h73.84v73.83h-73.84zm0-73.6h73.84v73.6h-73.84zm-73.83 0h73.83v73.6h-73.83zm-73.83 0h73.83v73.6h-73.83zm-73.84 0h73.84v73.6h-73.84z"/></g><path d="m380.87 391.88h-295.34v-64.81h295.46v65.05h-.12zm381.34-64.81v65.05h-.12v-.24h-295.34v-64.81z" fill="#ed1e29"/><g fill="none" stroke="#231f20"><path d="m85.53 391.88h295.34v295.34h-295.34v-295.1m0 221.27h295.34m-295.34-73.84h295.34m-295.34-73.83h295.34m-73.84-73.84v295.34m-73.83-295.34v295.34m-73.83-295.34v295.34" stroke-width="19.793"/><path d="m85.53 391.88v-64.81h295.46v65.05h-295.46z" stroke-width="21"/><path d="m97.46 311.25v11.56m26.59-11.56v11.56m27.22-11.52v11.57m26.6-11.48v11.57m27.22-11.39v11.57m28.11-11.49v11.57m26.59-11.57v11.57m27.22-11.52v11.56m26.59-11.47v11.56m27.23-11.38v11.56m28.41-12.22v11.57" stroke-linecap="round" stroke-linejoin="round" stroke-width="19.793"/><path d="m466.75 391.88h295.34v295.34h-295.34v-295.1m0 221.27h295.34m-295.34-73.84h295.34m-295.34-73.83h295.34m-73.84-73.84v295.34m-73.83-295.34v295.34m-73.84-295.34v295.34" stroke-width="19.793"/><path d="m466.75 391.88v-64.81h295.46v65.05h-295.46z" stroke-width="21"/><path d="m478.68 311.25v11.56m26.59-11.56v11.56m27.22-11.52v11.57m26.6-11.48v11.57m27.21-11.39v11.57m28.12-11.49v11.57m26.58-11.57v11.57m27.23-11.52v11.56m26.59-11.47v11.56m27.23-11.38v11.56m28.4-12.22v11.57" stroke-linecap="round" stroke-linejoin="round" stroke-width="19.793"/><g stroke-width="21"><path d="m300.32 162.03 31.9 95.52 90.75-43.84"/><path d="m540.16 218.18c-10.29-42.83-53.061-78.56-97.13-78.56-55.7 0-104.32 45.5-104.32 110.46"/></g></g><path d="m0 0h850.394v850.394h-850.394z" fill="none"/></svg>

<svg xmlns="http://www.w3.org/2000/svg" width="850.394" height="850.394" viewBox="0 0 850.394 850.394" overflow="visible"><path fill="#fff" d="M466.75 613.39h73.83v73.83h-73.83zM540.58 613.39h73.84v73.83h-73.84z"/><path fill="#fff" d="M614.42 613.39h73.83v73.83h-73.83zM688.25 613.39h73.84v73.83h-73.84zM688.25 539.55h73.84v73.84h-73.84zM614.42 539.55h73.83v73.84h-73.83z"/><path fill="#fff" d="M540.58 539.55h73.84v73.84h-73.84zM466.75 539.55h73.83v73.84h-73.83z"/><path fill="#fff" d="M466.75 465.72h73.83v73.83h-73.83zM540.58 465.72h73.84v73.83h-73.84z"/><path fill="#fff" d="M614.42 465.72h73.83v73.83h-73.83zM688.25 465.72h73.84v73.83h-73.84zM688.25 392.12h73.84v73.6h-73.84zM614.42 392.12h73.83v73.6h-73.83z"/><path fill="#fff" d="M540.58 392.12h73.84v73.6h-73.84zM466.75 392.12h73.83v73.6h-73.83zM85.53 613.39h73.84v73.83H85.53zM159.37 613.39h73.83v73.83h-73.83zM233.2 613.39h73.83v73.83H233.2zM307.03 613.39h73.84v73.83h-73.84zM307.03 539.55h73.84v73.84h-73.84zM233.2 539.55h73.83v73.84H233.2zM159.37 539.55h73.83v73.84h-73.83zM85.53 539.55h73.84v73.84H85.53z"/><path fill="#fff" d="M85.53 465.72h73.84v73.83H85.53zM159.37 465.72h73.83v73.83h-73.83zM233.2 465.72h73.83v73.83H233.2zM307.03 465.72h73.84v73.83h-73.84zM307.03 392.12h73.84v73.6h-73.84zM233.2 392.12h73.83v73.6H233.2zM159.37 392.12h73.83v73.6h-73.83zM85.53 392.12h73.84v73.6H85.53z"/><path fill="#ed1e29" d="M380.87 391.88H85.53v-64.81h295.46v65.05h-.12zM762.21 327.07v65.05h-.12v-.24H466.75v-64.81z"/><g fill="none" stroke="#231f20"><path stroke-width="19.793" d="M85.53 391.88H380.87v295.34H85.53v-295.1M85.53 613.39H380.87M85.53 539.55H380.87M85.53 465.72H380.87M307.03 391.88v295.34M233.2 391.88v295.34M159.37 391.88v295.34"/><path stroke-width="21" d="M85.53 391.88v-64.81h295.46v65.05H85.53z"/><path stroke-width="19.793" stroke-linecap="round" stroke-linejoin="round" d="M97.46 311.25v11.56M124.05 311.25v11.56M151.27 311.29v11.57M177.87 311.38v11.57M205.09 311.56v11.57M233.2 311.64v11.57M259.79 311.64v11.57M287.01 311.69v11.56M313.6 311.78v11.56M340.83 311.96v11.56M369.24 311.3v11.57"/><path stroke-width="19.793" d="M466.75 391.88H762.09v295.34H466.75v-295.1M466.75 613.39H762.09M466.75 539.55H762.09M466.75 465.72H762.09M688.25 391.88v295.34M614.42 391.88v295.34M540.58 391.88v295.34"/><path stroke-width="21" d="M466.75 391.88v-64.81h295.46v65.05H466.75z"/><path stroke-width="19.793" stroke-linecap="round" stroke-linejoin="round" d="M478.68 311.25v11.56M505.27 311.25v11.56M532.49 311.29v11.57M559.09 311.38v11.57M586.3 311.56v11.57M614.42 311.64v11.57M641 311.64v11.57M668.23 311.69v11.56M694.82 311.78v11.56M722.05 311.96v11.56M750.45 311.3v11.57"/><path stroke-width="21" d="M300.32 162.03l31.9 95.52 90.75-43.84"/><path d="M540.16 218.18c-10.29-42.83-53.061-78.56-97.13-78.56-55.7 0-104.32 45.5-104.32 110.46" stroke-width="21"/></g><path fill="none" d="M0 0h850.394v850.394H0z"/></svg>
